youtube.svg

<svg viewBox="0 0 24 24" xmlns="http://www.w3.org/2000/svg"><path d="M11.997 3.60091C11.997 3.60091 4.49645 3.59861 2.62434 4.09977C1.58945 4.37823 0.780348 5.18733 0.50189 6.22222C0.00072561 8.09433-3.07559e-08 12 0 12C0 12 0.000725641 15.9026 0.50189 17.7748C0.780349 18.8096 1.58945 19.6187 2.62434 19.8972C4.49645 20.3984 12 20.3991 12 20.3991C12 20.3991 19.5036 20.3984 21.3757 19.8972C22.4106 19.6187 23.2197 18.8096 23.4981 17.7748C23.9993 15.9026 24 12 24 12C24 12 23.9993 8.09433 23.4981 6.22222C23.2197 5.18733 22.4106 4.37823 21.3757 4.09977C19.5036 3.59861 11.997 3.60091 11.997 3.60091ZM9.5994 8.39909L15.8337 12L9.5994 15.5979L9.5994 8.39909Z" fill="#ff0000"/></svg>

<svg viewBox="0 0 24 24" xmlns="http://www.w3.org/2000/svg"><path d="M11.997 3.6s-7.5-.001-9.373.5A3.008 3.008 0 0 0 .502 6.222C0 8.094 0 12 0 12s0 3.903.502 5.775a3.008 3.008 0 0 0 2.122 2.122C4.496 20.398 12 20.4 12 20.4s7.504 0 9.376-.502a3.008 3.008 0 0 0 2.122-2.122C24 15.903 24 12 24 12s0-3.906-.502-5.778A3.008 3.008 0 0 0 21.376 4.1c-1.872-.501-9.379-.5-9.379-.5ZM9.599 8.4l6.235 3.6-6.235 3.598V8.399Z" fill="red"/></svg>
